assets/bonusesBg5.svg

<svg width="570" height="178" viewBox="0 0 570 178" fill="none" xmlns="http://www.w3.org/2000/svg">
<g clip-path="url(#clip0)">
<rect width="570" height="178" fill="#FFC856"/>
<g style="mix-blend-mode:screen" opacity="0.4">
<g style="mix-blend-mode:overlay" opacity="0.57">
<g style="mix-blend-mode:overlay" opacity="0.57">
<path d="M256.26 146.384C218.875 124.81 200.676 96.32 201.69 68.0489L223.132 80.4226C226.977 101.435 242.848 121.869 270.747 137.969C306.688 158.709 354.976 167.875 401.764 165.482L420.104 176.065C362.534 182.047 300.924 172.157 256.26 146.384Z" fill="white"/>
</g>
<g style="mix-blend-mode:overlay" opacity="0.57">
<path d="M480.842 54.501C478.956 53.4123 478.946 51.6444 480.825 50.5532C481.88 50.0165 483.048 49.7367 484.232 49.7367C485.416 49.7367 486.583 50.0165 487.639 50.5532C489.53 51.6444 489.54 53.4123 487.666 54.501C486.609 55.0389 485.44 55.3193 484.254 55.3193C483.068 55.3193 481.899 55.0389 480.842 54.501Z" fill="white"/>
</g>
<g style="mix-blend-mode:overlay" opacity="0.57">
<path d="M335.499 100.357C311.066 86.258 307.509 64.6341 324.893 48.4108L330.796 51.817C316.454 66.1266 319.932 84.7908 341.184 97.0548C366.473 111.647 407.342 111.65 432.466 97.0569C451.992 85.716 456.254 68.9008 445.32 55.1191L451.349 51.6173C465.259 67.3972 460.897 87.1695 438.189 100.359C409.925 116.776 363.952 116.777 335.499 100.357Z" fill="white"/>
</g>
<g style="mix-blend-mode:overlay" opacity="0.57">
<path d="M298.671 104.016C275.721 83.8367 275.534 57.5461 298.184 37.3473L300.397 38.6239C278.867 58.0932 279.043 83.2921 300.864 102.742L298.671 104.016Z" fill="white"/>
</g>
<g style="mix-blend-mode:overlay" opacity="0.57">
<path d="M349.99 91.9387C329.598 80.1712 329.491 61.0921 349.75 49.3246C370.015 37.5542 402.97 37.5538 423.362 49.3213C443.759 61.0913 443.866 80.1708 423.602 91.9411C403.343 103.709 370.387 103.709 349.99 91.9387ZM419.285 51.6897C401.159 41.2295 371.868 41.2295 353.854 51.6925C335.846 62.1526 335.941 79.1106 354.067 89.5708C372.199 100.033 401.49 100.033 419.498 89.5732C437.512 79.1103 437.416 62.1522 419.285 51.6897Z" fill="white"/>
</g>
<g style="mix-blend-mode:overlay" opacity="0.57">
<path d="M453.951 28.2109C452.06 27.1193 452.05 25.3518 453.929 24.2601C454.985 23.7231 456.154 23.4435 457.339 23.444C458.524 23.4445 459.692 23.7252 460.748 24.2631C462.64 25.3543 462.65 27.1221 460.775 28.2109C459.718 28.7488 458.549 29.0293 457.363 29.0293C456.177 29.0293 455.008 28.7488 453.951 28.2109Z" fill="white"/>
</g>
<g style="mix-blend-mode:overlay" opacity="0.57">
<path d="M290.952 126.232C237.74 95.5255 237.459 45.7394 290.325 15.0328C343.196 -15.6767 429.19 -15.6771 482.402 15.0295C535.619 45.7386 535.899 95.5244 483.028 126.234C430.163 156.94 344.168 156.941 290.952 126.232ZM471.765 21.2081C424.466 -6.08662 348.029 -6.08623 301.032 21.2114C254.04 48.5066 254.284 92.7617 301.584 120.056C348.888 147.353 425.33 147.35 472.321 120.056C519.318 92.7576 519.069 48.5053 471.765 21.2081Z" fill="white"/>
</g>
<g style="mix-blend-mode:overlay" opacity="0.57">
<path d="M470.534 40.6834C468.643 39.5921 468.633 37.8243 470.512 36.7327C471.568 36.1948 472.738 35.9143 473.924 35.9143C475.11 35.9143 476.279 36.1948 477.336 36.7327C479.222 37.8214 479.237 39.5917 477.358 40.6834C476.301 41.2208 475.132 41.501 473.946 41.501C472.76 41.501 471.591 41.2208 470.534 40.6834Z" fill="white"/>
</g>
<g style="mix-blend-mode:overlay" opacity="0.57">
<path d="M213.159 33.0294C215.708 29.0709 218.553 25.3106 221.669 21.7807L237.111 30.6921C234.192 34.3542 231.614 38.2752 229.409 42.4062L213.159 33.0294Z" fill="white"/>
</g>
<g style="mix-blend-mode:overlay" opacity="0.57">
<path d="M437.588 161.298C461.669 156.82 484.297 149.042 503.363 137.967C553.708 108.725 564.245 65.1991 535.128 29.8548L550.417 20.9745C587.162 61.3747 576.395 112.437 517.95 146.385C499.106 157.33 477.168 165.405 453.755 170.627L437.588 161.298Z" fill="white"/>
</g>
<g style="mix-blend-mode:overlay" opacity="0.57">
<path d="M323.152 107.529C287.843 87.1533 287.657 54.1124 322.737 33.7367C357.821 13.3581 414.887 13.3606 450.197 33.7363C485.51 54.1144 485.701 87.1525 450.617 107.531C415.537 127.907 358.466 127.907 323.152 107.529ZM448.361 34.8022C414.073 15.0163 358.659 15.0163 324.589 34.8056C290.524 54.5924 290.699 86.6762 324.988 106.463C359.281 126.252 414.699 126.249 448.764 106.462C482.835 86.6725 482.654 54.5915 448.361 34.8022Z" fill="white"/>
</g>
<g style="mix-blend-mode:overlay" opacity="0.57">
<path d="M229.02 14.2174C234.252 9.34354 239.861 4.89172 245.796 0.90363L260.437 9.35195C254.577 13.3594 249.097 17.8938 244.064 22.8984L229.02 14.2174Z" fill="white"/>
</g>
</g>
</g>
</g>
<defs>
<clipPath id="clip0">
<rect width="570" height="178" fill="white"/>
</clipPath>
</defs>
</svg>

<svg xmlns="http://www.w3.org/2000/svg" width="570" height="178" fill="none" xmlns:v="https://vecta.io/nano"><style><![CDATA[.B{opacity:.57}.C{fill:#fff}]]></style><g clip-path="url(#A)"><path fill="#ffc856" d="M0 0h570v178H0z"/><g style="mix-blend-mode:screen" opacity=".4" class="C"><g class="B"><g style="mix-blend-mode:overlay" class="B"><path d="M256.26 146.384C218.875 124.8 200.676 96.32 201.7 68.05l21.442 12.374c3.845 21.012 19.716 41.446 47.615 57.546 35.94 20.74 84.23 29.906 131.017 27.513l18.34 10.583c-57.57 5.982-119.18-3.908-163.844-29.68z"/></g><g style="mix-blend-mode:overlay" class="B"><path d="M480.842 54.5c-1.886-1.09-1.896-2.857-.017-3.948 1.055-.537 2.223-.816 3.407-.816a7.52 7.52 0 0 1 3.407.816c1.89 1.09 1.9 2.86.027 3.948-1.057.538-2.226.818-3.412.818s-2.355-.28-3.412-.818z"/></g><g style="mix-blend-mode:overlay" class="B"><path d="M335.5 100.357c-24.433-14.1-28-35.723-10.606-51.946l5.903 3.406c-14.342 14.3-10.864 32.974 10.388 45.238 25.29 14.592 66.158 14.595 91.282.002 19.526-11.34 23.788-28.156 12.854-41.938l6.03-3.502c13.9 15.78 9.548 35.552-13.16 48.742-28.264 16.417-74.237 16.418-102.7-.002z"/></g><g style="mix-blend-mode:overlay" class="B"><path d="M298.67 104.016c-22.95-20.18-23.137-46.47-.487-66.67l2.213 1.277c-21.53 19.47-21.354 44.668.467 64.118l-2.193 1.274z"/></g><g style="mix-blend-mode:overlay" class="B"><path d="M350 91.94c-20.392-11.767-20.5-30.847-.24-42.614 20.265-11.77 53.22-11.77 73.612-.003s20.504 30.85.24 42.62c-20.26 11.768-53.215 11.768-73.612-.002zm69.295-40.25c-18.126-10.46-47.417-10.46-65.43.003-18.008 10.46-17.913 27.418.213 37.878 18.132 10.462 47.423 10.462 65.43.002 18.014-10.463 17.918-27.42-.213-37.883z"/></g><g style="mix-blend-mode:overlay" class="B"><path d="M453.95 28.21c-1.89-1.092-1.9-2.86-.022-3.95 1.056-.537 2.225-.817 3.4-.816s2.353.28 3.41.82c1.892 1.09 1.902 2.86.027 3.948-1.057.538-2.226.818-3.412.818s-2.355-.28-3.412-.818z"/></g><g style="mix-blend-mode:overlay" class="B"><path d="M290.952 126.232c-53.212-30.707-53.493-80.493-.627-111.2 52.87-30.71 138.865-30.7 192.077-.003 53.217 30.71 53.497 80.495.626 111.205-52.865 30.706-138.86 30.707-192.076-.002zM471.765 21.208c-47.3-27.295-123.736-27.294-170.733.003-46.992 27.295-46.748 71.55.552 98.845s123.746 27.294 170.737 0c46.997-27.298 46.748-71.55-.556-98.848z"/></g><g style="mix-blend-mode:overlay" class="B"><path d="M470.534 40.683c-1.89-1.09-1.9-2.86-.022-3.95a7.52 7.52 0 0 1 3.412-.818c1.186 0 2.355.28 3.412.818 1.886 1.09 1.9 2.86.022 3.95a7.53 7.53 0 0 1-6.824 0z"/></g><g style="mix-blend-mode:overlay" class="B"><path d="M213.16 33.03a93.44 93.44 0 0 1 8.51-11.249l15.442 8.91c-2.92 3.662-5.497 7.583-7.702 11.714l-16.25-9.377z"/></g><g style="mix-blend-mode:overlay" class="B"><path d="M437.588 161.298c24.08-4.478 46.71-12.256 65.775-23.33 50.345-29.242 60.882-72.768 31.765-108.112l15.29-8.88c36.745 40.4 25.978 91.463-32.467 125.4-18.844 10.945-40.782 19.02-64.195 24.242l-16.167-9.33z"/></g><g style="mix-blend-mode:overlay" class="B"><path d="M323.152 107.53c-35.31-20.376-35.495-53.417-.415-73.792s92.15-20.376 127.46 0 35.504 53.416.42 73.795-92.15 20.376-127.465-.002zm125.21-72.727c-34.288-19.786-89.702-19.786-123.772.003s-33.9 51.87.4 71.657 89.71 19.786 123.776-.001c34.07-19.8 33.9-51.87-.403-71.66z"/></g><g style="mix-blend-mode:overlay" class="B"><path d="M229.02 14.217A135.42 135.42 0 0 1 245.796.904l14.64 8.448a116.44 116.44 0 0 0-16.373 13.546l-15.044-8.68z"/></g></g></g></g><defs><clipPath id="A"><path d="M0 0h570v178H0z" class="C"/></clipPath></defs></svg>
